X: 34788
T: Road To Skye, The
R: jig
M: 6/8
K: Gmajor
~G3 EGD|GBd e2d|gBB BAB|cBc E2D|
GFG E/F/GD|GBd e2f|gBB BAB|cAF G2F:|
GBd GBd|GBd cAF|GBd eag|fd^c def|
~g3 ~f3|e/f/ge dcB|cBc Adc|BGG G2F:|

